X:1
T:Pentatonic Waltz
C:Original vessel-flute study
S:Public domain or original as noted in notes.md
M:3/4
L:1/8
Q:1/4=78
K:C
H:C pentatonic starter arrangement for Vessel Flutes (C). Refs #1
C2 E2 G2 | A4 G2 | E2 D2 C2 | D6 |
E2 G2 A2 | c4 A2 | G2 E2 D2 | C6 |
C2 D2 E2 | G4 A2 | c2 A2 G2 | E6 |
D2 E2 G2 | A4 G2 | E2 D2 C2 | C6 |]
